X:1
T:Speak Just a Word
T:Speak Just a Word
T:Daniel Brink Towner
T:Katherine Osbourne Barker, 1903
T:Public Domain Courtesy of the Cyber Hymnal™
T:Public Domain Courtesy of the Cyber Hymnal™
C:Daniel Brink Towner
Z:Public Domain
Z:Courtesy of the Cyber Hymnal™
%%score ( 1 2 ) ( 3 4 )
L:1/8
Q:1/4=104
M:4/4
K:G
V:1 treble 
V:2 treble 
V:3 bass 
V:4 bass 
V:1
 [DB]2 [DB]>[DB] [Ec]2 [DB]2 | [CA]4 [CE]4 | [CF]2 [CF]>[CE] [CD]2 [Ec]2 | [DB]6 z2 | %4
w: 1.~Speak just a word for|Je- sus,|Tell how He died for|you;|
w: 2.~Speak just a word for|Je- sus,|Tell how He helps you|live;|
w: 3.~Speak just a word for|Je- sus,|Do not for oth- ers|wait;|
w: 4.~Speak just a word for|Je- sus,|Why should you doubt or|fear?|
w: 5.~Speak just a word for|Je- sus,|Tell of His love for|men;|
 [DB]2 [DB]>[DB] [Ec]2 [DB]2 | [CA]4 [CE]4 | [CF]2 [DF]>[DG] [FA]2 [FB]2 | G6 z2 || %8
w: Oft- en re- peat the|sto- ry,|Won- der- ful, glad and|true.|
w: Tell of the strength and|com- fort|Which He will free- ly|give.|
w: Glad- ly pro- claim your|mes- sage|Ere it shall be too|late.|
w: Sure- ly His love will|bless it;|Some- one will glad- ly|hear.|
w: Some- one dis- tressed may|lis- ten,|Will- ing to trust Him|then.|
"^Refrain" d6 [Ge]>[Gd] | B6 z2 | [FA]2 [FA]>[GB] [Ac]2 [Fd]2 | [GB]6 z2 | d6 [Ge]>[Gd] | B6 z2 | %14
w: ||||||
w: ||||||
w: Speak just a|word,|Ev- er to Him be|true;|Speak just a|word,|
w: ||||||
w: ||||||
 [FA]2 [FA][GB] [Ac]<[Ac] [DF]2 | [DG]6 z2 |] %16
w: ||
w: ||
w: Tell what He’s do- ing for|you.|
w: ||
w: ||
V:2
 x8 | x8 | x8 | x8 | x8 | x8 | x8 | G6 x2 || (G2 G>G G2) x2 | (G2 G2 GG) x2 | x8 | x8 | %12
 (G2 G>G G2) x2 | (G2 G2 GG) x2 | x8 | x8 |] %16
V:3
 G,2 G,>G, G,2 G,2 | [C,E,]4 [C,A,]4 | [D,A,]2 [D,A,]>[D,A,] [D,A,]2 [D,F,]2 | G,6 z2 | %4
w: ~ ~ ~ ~ ~|~ ~|~ ~ ~ ~ ~|~|
 G,2 G,>G, G,2 G,2 | [C,E,]4 [C,A,]4 | [D,A,]2 [D,A,]>[D,B,] [D,C]2 [D,D]2 | [G,,G,B,]6 z2 || %8
w: ~ ~ ~ ~ ~|~ ~|~ ~ ~ ~ ~|~|
 [G,B,]2 [G,B,]>[A,C] [B,D]2 C>[B,D] | [G,D]2 [G,D]2 [G,D][G,D] z2 | %10
w: Speak just a word, just a|word for Je- sus,|
 [D,D]2 [D,C]>[D,B,] [D,A,]2 [D,A,]2 | G,6 z2 | [G,B,]2 [G,B,]>[A,C] [B,D]2 C>[B,D] | %13
w: ~ ~ ~ ~ ~|~|Speak just a word, just a|
 [G,D]2 [G,D]2 [G,D][G,D] z2 | [D,D]2 [D,D][D,D] [D,D]<[D,D] [D,D]2 | [G,,G,B,]6 z2 |] %16
w: word for Je- sus,|||
V:4
 G,2 G,>G, G,2 G,2 | x8 | x8 | G,6 x2 | G,2 G,>G, G,2 G,2 | x8 | x8 | x8 || x6 C3/2 x/ | x8 | x8 | %11
 G,6 x2 | x6 C3/2 x/ | x8 | x8 | x8 |] %16

